src/Assets/Icons/ResidentWhiteIcon2.svg

<svg width="289" height="54" viewBox="0 0 289 54" fill="none" xmlns="http://www.w3.org/2000/svg">
<path d="M42.3416 40.9412L37.4846 32.5408L41.5537 25.5132L43.9283 21.4042L41.7305 17.6034L38.8963 12.6892L36.4909 8.53759L31.7335 8.52852L23.5934 8.50767L18.9803 8.4986L10.8465 8.47956L6.07471 8.46777L8.49824 12.6584L13.7406 21.7251L2.65383 40.904L0 45.4954H4.90873L12.5248 45.5017L17.293 45.5081L21.917 37.0824L26.9037 45.5144L32.2649 45.5208L40.3905 45.5262L45 45.5326L42.3416 40.9412ZM34.1371 12.6865L39.355 21.7097L35.2895 28.7428L26.0016 12.6775L34.1371 12.6865ZM15.1877 40.9167L7.56618 40.9076L16.2022 25.9774L20.0148 32.568L15.1877 40.9167ZM29.6128 40.9285L13.2664 12.6648L21.3957 12.6738L32.9875 32.7258L35.1852 36.5239L37.7348 40.9375L29.6128 40.9285Z" fill="white"/>
<path d="M60.4637 43V13.0243H73.9528C75.8655 13.0243 77.5927 13.4383 79.1343 14.2662C80.7045 15.0941 81.932 16.236 82.817 17.692C83.702 19.1194 84.1445 20.7466 84.1445 22.5737C84.1445 24.4579 83.702 26.1565 82.817 27.6696C81.932 29.1541 80.7187 30.3246 79.1771 31.181C77.6355 32.0375 75.8941 32.4657 73.9528 32.4657H67.401V43H60.4637ZM77.0788 43L69.4564 29.4681L76.9075 28.3976L85.3864 43H77.0788ZM67.401 26.8988H73.3105C74.0527 26.8988 74.6951 26.7418 75.2375 26.4277C75.8084 26.0852 76.2367 25.6141 76.5221 25.0146C76.8362 24.4151 76.9932 23.7299 76.9932 22.9591C76.9932 22.1883 76.8219 21.5174 76.4793 20.9465C76.1367 20.347 75.6371 19.8902 74.9805 19.5761C74.3525 19.2621 73.5817 19.1051 72.6681 19.1051H67.401V26.8988ZM90.5314 43V13.0243H111.429V19.2336H97.5971V36.7908H111.857V43H90.5314ZM93.9572 30.71V24.8005H109.502V30.71H93.9572ZM128.067 43.4282C126.097 43.4282 124.312 43.1998 122.714 42.7431C121.144 42.2577 119.745 41.5726 118.517 40.6876C117.29 39.774 116.191 38.7035 115.22 37.4759L119.631 32.4657C121.058 34.3784 122.485 35.6631 123.913 36.3197C125.369 36.9763 126.868 37.3046 128.409 37.3046C129.18 37.3046 129.879 37.2047 130.507 37.0049C131.136 36.805 131.621 36.5195 131.963 36.1484C132.306 35.7487 132.477 35.2634 132.477 34.6925C132.477 34.2642 132.363 33.8788 132.135 33.5362C131.935 33.1937 131.649 32.8939 131.278 32.637C130.907 32.38 130.465 32.1517 129.951 31.9518C129.437 31.7234 128.894 31.5379 128.324 31.3951C127.753 31.2238 127.167 31.0811 126.568 30.9669C124.912 30.5958 123.47 30.139 122.243 29.5966C121.015 29.0542 119.987 28.3976 119.16 27.6268C118.36 26.8274 117.761 25.9281 117.361 24.9289C116.961 23.9012 116.761 22.7593 116.761 21.5032C116.761 20.1614 117.061 18.9338 117.661 17.8204C118.289 16.6785 119.117 15.7079 120.144 14.9085C121.201 14.0806 122.414 13.4525 123.784 13.0243C125.155 12.5675 126.582 12.3392 128.067 12.3392C130.036 12.3392 131.721 12.5533 133.12 12.9815C134.547 13.3812 135.76 13.9664 136.76 14.7372C137.787 15.508 138.658 16.4358 139.372 17.5207L134.875 21.8457C134.276 21.1035 133.619 20.4897 132.906 20.0044C132.22 19.5191 131.478 19.1479 130.679 18.891C129.908 18.6341 129.109 18.5056 128.281 18.5056C127.424 18.5056 126.682 18.6198 126.054 18.8482C125.454 19.048 124.983 19.3478 124.641 19.7474C124.298 20.1186 124.127 20.5753 124.127 21.1178C124.127 21.6031 124.27 22.017 124.555 22.3596C124.841 22.7022 125.226 23.0162 125.711 23.3017C126.197 23.5586 126.753 23.787 127.381 23.9869C128.009 24.1581 128.666 24.3009 129.351 24.4151C130.921 24.7291 132.335 25.1431 133.591 25.6569C134.875 26.1708 135.974 26.7989 136.888 27.5411C137.83 28.2834 138.544 29.1684 139.029 30.1961C139.543 31.1953 139.8 32.3658 139.8 33.7075C139.8 35.7916 139.286 37.5616 138.258 39.0175C137.259 40.4449 135.875 41.544 134.105 42.3148C132.363 43.0571 130.35 43.4282 128.067 43.4282ZM144.673 43V36.8764H149.726V19.1479H144.673V13.0243H162.101V19.1479H157.005V36.8764H162.101V43H144.673ZM169.025 43V13.0243H181.572C183.77 13.0243 185.783 13.3954 187.61 14.1377C189.437 14.8514 191.007 15.8791 192.321 17.2209C193.662 18.5627 194.69 20.1471 195.404 21.9742C196.118 23.8013 196.474 25.8139 196.474 28.0122C196.474 30.2104 196.118 32.2373 195.404 34.0929C194.69 35.92 193.662 37.5045 192.321 38.8462C191.007 40.1594 189.437 41.1872 187.61 41.9294C185.783 42.6431 183.77 43 181.572 43H169.025ZM176.305 38.0326L175.32 36.5766H181.358C182.557 36.5766 183.628 36.3768 184.57 35.9771C185.512 35.5489 186.311 34.9637 186.968 34.2214C187.653 33.4792 188.181 32.5799 188.552 31.5236C188.923 30.4673 189.109 29.2968 189.109 28.0122C189.109 26.7275 188.923 25.557 188.552 24.5007C188.181 23.4444 187.653 22.5452 186.968 21.8029C186.311 21.0607 185.512 20.4897 184.57 20.09C183.628 19.6618 182.557 19.4477 181.358 19.4477H175.192L176.305 18.0774V38.0326ZM202.104 43V13.0243H223.001V19.2336H209.17V36.7908H223.429V43H202.104ZM205.53 30.71V24.8005H221.074V30.71H205.53ZM229.704 43V13.0243H236.213L251.929 34.4355L250.516 34.2214C250.373 33.2793 250.259 32.38 250.173 31.5236C250.088 30.6671 250.002 29.825 249.916 28.9971C249.859 28.1692 249.802 27.327 249.745 26.4706C249.717 25.6141 249.688 24.6863 249.659 23.6871C249.659 22.6879 249.659 21.6031 249.659 20.4326V13.0243H256.725V43H250.13L233.73 20.9036L235.913 21.2034C236.056 22.5737 236.17 23.7442 236.256 24.7148C236.37 25.6569 236.456 26.4991 236.513 27.2414C236.599 27.9836 236.656 28.6545 236.684 29.254C236.713 29.8535 236.727 30.453 236.727 31.0526C236.756 31.6235 236.77 32.2659 236.77 32.9796V43H229.704ZM270.755 43V19.4477H261.848V13.0243H287.156V19.4477H278.035V43H270.755Z" fill="white"/>
</svg>

<svg width="289" height="54" fill="none" xmlns="http://www.w3.org/2000/svg"><path d="m42.342 40.941-4.857-8.4 4.069-7.028 2.374-4.109-2.197-3.8-2.835-4.915-2.405-4.151-4.758-.01-8.14-.02-4.613-.01-8.133-.018-4.772-.012 2.423 4.19 5.243 9.067L2.654 40.904 0 45.495h4.909l7.616.007 4.768.006 4.624-8.426 4.987 8.432 5.36.007 8.127.005 4.609.007-2.658-4.592Zm-8.205-28.255 5.218 9.024-4.066 7.033-9.287-16.066 8.135.01Zm-18.95 28.23-7.62-.008 8.635-14.93 3.813 6.59-4.827 8.349Zm14.426.013L13.266 12.665l8.13.009 11.591 20.052 2.198 3.798 2.55 4.413-8.122-.008ZM60.464 43V13.024h13.489c1.912 0 3.64.414 5.181 1.242 1.57.828 2.798 1.97 3.683 3.426.885 1.427 1.328 3.055 1.328 4.882 0 1.884-.443 3.582-1.328 5.096a9.561 9.561 0 0 1-3.64 3.511c-1.542.857-3.283 1.285-5.224 1.285H67.4V43h-6.937Zm16.615 0-7.623-13.532 7.451-1.07L85.388 43h-8.308ZM67.4 26.899h5.91c.742 0 1.384-.157 1.926-.471.571-.343 1-.814 1.285-1.413.314-.6.471-1.285.471-2.056 0-.77-.171-1.442-.514-2.012a3.332 3.332 0 0 0-1.498-1.37c-.628-.315-1.4-.472-2.313-.472h-5.267V26.9ZM90.531 43V13.024h20.898v6.21H97.597V36.79h14.26V43H90.531Zm3.426-12.29V24.8h15.545v5.91H93.957Zm34.11 12.718c-1.97 0-3.755-.228-5.353-.685-1.57-.485-2.969-1.17-4.197-2.055a17.574 17.574 0 0 1-3.297-3.212l4.411-5.01c1.427 1.912 2.854 3.197 4.282 3.854 1.456.656 2.955.985 4.496.985.771 0 1.47-.1 2.098-.3.629-.2 1.114-.486 1.456-.857.343-.4.514-.885.514-1.456a2.04 2.04 0 0 0-.342-1.156 2.844 2.844 0 0 0-.857-.899 6.396 6.396 0 0 0-1.327-.685 9.962 9.962 0 0 0-1.627-.557 17.544 17.544 0 0 0-1.756-.428c-1.656-.371-3.098-.828-4.325-1.37-1.228-.543-2.256-1.2-3.083-1.97a7.982 7.982 0 0 1-1.799-2.698c-.4-1.028-.6-2.17-.6-3.426 0-1.342.3-2.57.9-3.683a9.382 9.382 0 0 1 2.483-2.912c1.057-.827 2.27-1.455 3.64-1.884a13.457 13.457 0 0 1 4.283-.685c1.969 0 3.654.214 5.053.643 1.427.4 2.64.984 3.64 1.755a11.042 11.042 0 0 1 2.612 2.784l-4.497 4.325a9.168 9.168 0 0 0-1.969-1.842 8.157 8.157 0 0 0-2.227-1.113 7.534 7.534 0 0 0-2.398-.385c-.857 0-1.599.114-2.227.342-.6.2-1.071.5-1.413.9-.343.37-.514.827-.514 1.37 0 .485.143.899.428 1.242.286.342.671.656 1.156.942.486.257 1.042.485 1.67.685.628.171 1.285.314 1.97.428 1.57.314 2.984.728 4.24 1.242 1.284.514 2.383 1.142 3.297 1.884.942.742 1.656 1.627 2.141 2.655.514 1 .771 2.17.771 3.512 0 2.084-.514 3.854-1.542 5.31-.999 1.427-2.383 2.526-4.153 3.297-1.742.742-3.755 1.113-6.038 1.113ZM144.673 43v-6.124h5.053V19.148h-5.053v-6.124h17.428v6.124h-5.096v17.728h5.096V43h-17.428Zm24.352 0V13.024h12.547c2.198 0 4.211.371 6.038 1.114 1.827.713 3.397 1.741 4.711 3.083a13.689 13.689 0 0 1 3.083 4.753c.714 1.827 1.07 3.84 1.07 6.038 0 2.198-.356 4.225-1.07 6.08a13.688 13.688 0 0 1-3.083 4.754c-1.314 1.313-2.884 2.341-4.711 3.083-1.827.714-3.84 1.071-6.038 1.071h-12.547Zm7.28-4.967-.985-1.456h6.038c1.199 0 2.27-.2 3.212-.6a7.059 7.059 0 0 0 2.398-1.756c.685-.742 1.213-1.641 1.584-2.697.371-1.057.557-2.227.557-3.512 0-1.285-.186-2.455-.557-3.511-.371-1.057-.899-1.956-1.584-2.698a6.597 6.597 0 0 0-2.398-1.713c-.942-.428-2.013-.642-3.212-.642h-6.166l1.113-1.37v19.955ZM202.104 43V13.024h20.897v6.21H209.17V36.79h14.259V43h-21.325Zm3.426-12.29V24.8h15.544v5.91H205.53ZM229.704 43V13.024h6.509l15.716 21.411-1.413-.214a53.876 53.876 0 0 1-.343-2.697c-.085-.857-.171-1.699-.257-2.527l-.171-2.526c-.028-.857-.057-1.785-.086-2.784V13.024h7.066V43h-6.595l-16.4-22.096 2.183.3c.143 1.37.257 2.54.343 3.51.114.943.2 1.785.257 2.527.086.743.143 1.413.171 2.013.029.6.043 1.199.043 1.799.029.57.043 1.213.043 1.927V43h-7.066Zm41.051 0V19.448h-8.907v-6.424h25.308v6.424h-9.121V43h-7.28Z" fill="#fff"/></svg>
